X:1
T:R.O. Farquharson Esq. of Haughton's
T:R.O. Farquharson Esq. of Haughton's
T:Alexander Walker
C:Alexander Walker
L:1/8
M:2/2
K:G
V:1 treble 
V:1
 B | G2 BG dGBg | G2 BG ADFA | G2 BG dGBd | eafd (g2 g) :| d | g2 (ba) geeg | dBBG A2 Ad | %8
 g2 ba gdBG | EAFD (G2 G)d | g2 (ba) geeg | dBBG A2 Ad | BddB ceec | BGAF [B,G]2- [B,G] || %14

